website/public/Images/logos/twitter_blue.svg

<svg width="20" height="18" viewBox="0 0 20 18" fill="none" xmlns="http://www.w3.org/2000/svg">
<g clip-path="url(#clip0)">
<path d="M19.5239 3.00084L17.3811 3.37584L18.8096 1.50084L16.3096 2.25084C13.0954 -1.49916 8.09535 2.62584 9.52392 6.00084C3.80964 6.00084 0.952497 1.50084 0.952497 1.50084C0.952497 1.50084 -1.19036 4.87584 2.38107 7.50084L0.238211 6.75084C0.238211 9.00084 1.66678 10.5008 4.16678 11.2508H1.66678C3.09535 14.2508 5.59535 14.2508 5.59535 14.2508C5.59535 14.2508 3.4525 16.1258 -0.476074 16.1258C11.3096 22.1258 18.4525 10.8758 17.3811 4.87584L19.5239 3.00084Z" fill="#62A7BD"/>
</g>
<defs>
<clipPath id="clip0">
<rect width="20" height="18" fill="white"/>
</clipPath>
</defs>
</svg>

<svg xmlns="http://www.w3.org/2000/svg" width="20" height="18" fill="none" xmlns:v="https://vecta.io/nano"><g clip-path="url(#A)"><path d="M19.524 3.001l-2.143.375 1.428-1.875-2.5.75c-3.214-3.75-8.214.375-6.786 3.75-5.714 0-8.571-4.5-8.571-4.5s-2.143 3.375 1.429 6l-2.143-.75c0 2.25 1.429 3.75 3.929 4.5h-2.5c1.429 3 3.929 3 3.929 3s-2.143 1.875-6.071 1.875c11.786 6 18.929-5.25 17.857-11.25l2.143-1.875z" fill="#62a7bd"/></g><defs><clipPath id="A"><path fill="#fff" d="M0 0h20v18H0z"/></clipPath></defs></svg>
